X:101
T:Reel 101
M:4/4
K:Dmaj
L:1/8
A|FA (3AAA dAGB|GFGB AFD2|FA (3AAA dedB|AAAG FDDF|FA (3AAA d2AF|GABc defg| (3fgf  (3gfe fdec| (3Bcd AG FDD|g|f2fd g2eg|fddf  (3efg fe|f2fd  (3fga fd| (3Bcd AG FDDg|f2fd g2fg| (3fga fd edBg|afge fdec|dBAG FDD|
